src/image-upload-drag.svg

<svg xmlns="http://www.w3.org/2000/svg" class="dibsvg-svg dibsvg-image-upload-drag" viewBox="0 0 100 100">
    <path d="M99.3712183,84.8302806 L89.9014048,77.0018483 L89.9014048,76.8541421 L94.0444482,74.638548 C94.6363116,74.3431355 94.9322432,73.7523104 94.9322432,73.0137791 C94.9322432,72.2752477 94.4883457,71.8321289 93.7485166,71.5367164 L71.9975388,65.0376406 C71.2577096,64.8899343 70.5178804,65.1853468 70.2219488,65.7761719 C69.9260171,66.2192907 69.9260171,66.8101158 70.2219488,67.2532346 L80.7275231,87.1935809 C81.0234547,87.784406 81.6153181,88.0798185 82.2071814,88.0798185 C82.9470106,88.0798185 83.5388739,87.6366997 83.8348056,86.8981684 L85.4624298,81.5807427 L85.6103956,81.5807427 L85.7583615,81.5807427 L95.5241066,89.5568812 C95.8200383,89.8522937 96.1159699,90 96.5598674,90 C97.0037649,90 97.4476624,89.8522937 97.7435941,89.4091749 L99.8151158,86.8981684 C100.111047,86.3073433 100.111047,85.4211057 99.3712183,84.8302806 Z M98.4834233,86.159637 L96.4119016,88.6706436 C96.4119016,88.6706436 96.2639358,88.8183498 96.2639358,88.6706436 L86.4981906,80.6945051 C86.202259,80.3990925 85.7583615,80.2513863 85.4624298,80.2513863 C84.7226006,80.2513863 84.1307373,80.6945051 83.9827714,81.4330364 L82.5031131,86.7504621 C82.5031131,86.8981684 82.3551472,86.8981684 82.3551472,86.8981684 C82.3551472,86.8981684 82.2071814,86.8981684 82.2071814,86.7504621 L71.7016071,66.8101158 C71.7016071,66.8101158 71.7016071,66.8101158 71.7016071,66.6624095 L71.8495729,66.5147033 L93.4525849,73.0137791 C93.6005507,73.0137791 93.6005507,73.1614854 93.6005507,73.1614854 C93.6005507,73.3091916 93.6005507,73.3091916 93.4525849,73.3091916 L89.3095415,75.5247857 C88.865644,75.6724919 88.5697123,76.1156107 88.4217465,76.7064358 C88.2737807,77.2972609 88.5697123,77.888086 89.0136098,78.1834985 L98.4834233,86.0119307 C98.4834233,86.0119307 98.4834233,86.159637 98.4834233,86.159637 Z"/>
    <path d="M64.7049676,59.8488977 L60.3829477,56.3735454 C60.0627981,56.2224431 59.9027233,55.618034 60.0627981,55.3158294 C60.3829477,55.0136249 60.8631722,54.8625226 61.1833218,55.1647272 L65.6654164,58.6400795 C65.9855661,58.9422841 66.1456409,59.3955909 65.8254913,59.6977954 C65.6654164,59.8488977 65.3452668,60 65.185192,60 C65.0251172,60 64.8650424,60 64.7049676,59.8488977 Z M62.2391304,65 C62.0869565,65 62.0869565,65 62.2391304,65 L56.6086957,64.25 C56.1521739,64.125 56,63.875 56,63.5 C56.1521739,63.125 56.4565217,63 56.9130435,63 L62.3913043,63.75 C62.8478261,63.875 63,64.125 63,64.5 C63,64.75 62.5434783,65 62.2391304,65 Z M61.9449619,69.603352 C62.085256,70.1396648 61.9449619,70.6759777 61.6643738,70.6759777 L57.0346689,73 L56.7540807,73 C56.4734925,73 56.1929044,72.8212291 56.0526103,72.4636872 C55.9123162,72.1061453 56.0526103,71.5698324 56.4734925,71.3910615 L61.1031974,69.0670391 C61.3837856,68.8882682 61.8046679,69.0670391 61.9449619,69.603352 Z M64.6301873,72.2639925 C64.9315706,71.9453254 65.3836456,71.9453254 65.6850289,72.1046589 C65.9864121,72.423326 66.1371038,72.9013266 65.8357205,73.2199937 L62.3698127,77.6813329 C62.219121,77.8406665 61.9177377,78 61.7670461,78 C61.6163544,78 61.4656628,78 61.3149711,77.8406665 C61.0135879,77.5219994 60.8628962,77.0439987 61.1642795,76.7253317 L64.6301873,72.2639925 Z M69.476003,75 C69.8450037,75.1521739 70.0910042,75.4565217 69.968004,75.9130435 L69.2300025,81.3913043 C69.2300025,81.6956522 68.8610017,82 68.6150012,82 L68.492001,82 C68.1230002,81.8478261 68,81.5434783 68,81.0869565 L68.7380015,75.6086957 C68.8610017,75.1521739 69.1070022,75 69.476003,75 Z M79.0483748,63.4636872 C78.9142536,62.9273743 79.0483748,62.3910615 79.5848593,62.3910615 L84.1449778,60.0670391 C84.41322,59.8882682 84.8155834,60.0670391 84.9497046,60.603352 C85.0838257,60.9608939 84.9497046,61.4972067 84.5473412,61.6759777 L79.9872227,64 L79.7189804,64 C79.4507382,64 79.1824959,63.8212291 79.0483748,63.4636872 Z M76.7670461,59 C76.6163544,59 76.3149711,59 76.3149711,58.842479 C76.0135879,58.5274371 75.8628962,58.0548743 76.1642795,57.7398323 L79.6301873,53.3292456 C79.9315706,53.0142037 80.3836456,52.8566827 80.6850289,53.1717246 C80.9864121,53.4867665 81.1371038,53.9593294 80.8357205,54.2743713 L77.3698127,58.6849581 C77.219121,58.842479 76.9177377,59 76.7670461,59 Z M72.5,57 C72.125,56.8666667 72,56.6 72,56.2 L72.75,51.5333333 C72.875,51.1333333 73.125,51 73.5,51 C73.875,51.1333333 74,51.4 74,51.8 L73.25,56.4666667 C73.125,56.7333333 72.875,57 72.5,57 Z M68.9310758,56.1700288 C69.1067663,56.4466859 68.9310758,56.8616715 68.5796947,57 L68.2283136,57 C67.8769325,57 67.5255515,56.8616715 67.3498609,56.5850144 L65.065884,51.8818444 C64.8901934,51.6051873 65.065884,51.1902017 65.5929556,51.0518732 C65.9443366,50.9135447 66.4714082,51.0518732 66.6470988,51.4668588 L68.9310758,56.1700288 Z"/>
    <path d="M23.0023195,36 C27.4625644,36 31,32.3076923 31,28 C31,23.5384615 27.3087628,20 23.0023195,20 C18.5420746,20 15.004639,23.6923077 15.004639,28 C14.8508374,32.3076923 18.5420746,36 23.0023195,36 Z M23.0029189,21.5 C26.5608443,21.5 29.5,24.4404762 29.5,28 C29.5,31.5595238 26.5608443,34.5 23.0029189,34.5 C19.4449935,34.5 16.5058377,31.5595238 16.5058377,28 C16.3511453,24.4404762 19.2903011,21.5 23.0029189,21.5 Z"/>
    <path d="M0,9 L0,65.9066667 L0,75 L75.4,75 L74.675,73.5333333 L1.45,73.5333333 L1.45,66.4933333 L20.445,47.4266667 L31.03,58.1333333 L32.045,59.16 L33.06,58.1333333 L62.205,28.6533333 L85.55,52.2666667 L85.55,70.0133333 L87,70.4533333 L87,51.5333333 L87,9 L0,9 Z M85.55,50.0666667 L62.205,26.6 L32.045,57.1066667 L20.445,45.3733333 L1.45,64.44 L1.45,10.4666667 L85.55,10.4666667 L85.55,50.0666667 Z"/>
</svg>

<svg xmlns="http://www.w3.org/2000/svg" class="dibsvg-svg dibsvg-image-upload-drag" viewBox="0 0 100 100">
    <path d="M99.371 84.83l-9.47-7.828v-.148l4.143-2.215c.592-.296.888-.887.888-1.625 0-.739-.444-1.182-1.183-1.477l-21.751-6.5c-.74-.147-1.48.148-1.776.74a1.34 1.34 0 0 0 0 1.476l10.506 19.94c.295.591.887.887 1.48.887.739 0 1.33-.443 1.627-1.182l1.627-5.317h.296l9.766 7.976c.296.295.592.443 1.036.443.444 0 .888-.148 1.184-.59l2.071-2.512c.296-.59.296-1.477-.444-2.068zm-.888 1.33l-2.071 2.51s-.148.148-.148 0l-9.766-7.975a1.6 1.6 0 0 0-1.036-.444c-.74 0-1.331.444-1.48 1.182l-1.479 5.317c0 .148-.148.148-.148.148s-.148 0-.148-.148L71.702 66.81v-.148l.148-.147 21.603 6.499c.148 0 .148.147.148.147 0 .148 0 .148-.148.148l-4.143 2.216c-.444.147-.74.59-.888 1.181-.148.591.148 1.182.592 1.477l9.47 7.829v.148z"/>
    <path d="M64.705 59.849l-4.322-3.475c-.32-.152-.48-.756-.32-1.058.32-.302.8-.453 1.12-.151l4.482 3.475c.32.302.48.756.16 1.058-.16.15-.48.302-.64.302-.16 0-.32 0-.48-.151zM62.239 65c-.152 0-.152 0 0 0l-5.63-.75c-.457-.125-.609-.375-.609-.75.152-.375.457-.5.913-.5l5.478.75c.457.125.609.375.609.75 0 .25-.457.5-.76.5zm-.294 4.603c.14.537 0 1.073-.28 1.073L57.034 73h-.28c-.282 0-.562-.179-.702-.536-.14-.358 0-.894.42-1.073l4.63-2.324c.28-.179.702 0 .842.536zm2.685 2.661c.302-.319.754-.319 1.055-.16.301.32.452.797.15 1.116l-3.465 4.461c-.15.16-.452.319-.603.319-.15 0-.301 0-.452-.16-.301-.318-.452-.796-.15-1.115l3.465-4.461zM69.476 75c.369.152.615.457.492.913l-.738 5.478c0 .305-.369.609-.615.609h-.123c-.369-.152-.492-.457-.492-.913l.738-5.478c.123-.457.369-.609.738-.609zm9.572-11.536c-.134-.537 0-1.073.537-1.073l4.56-2.324c.268-.179.67 0 .805.536.134.358 0 .894-.403 1.073L79.987 64h-.268c-.268 0-.537-.179-.67-.536zM76.767 59c-.15 0-.452 0-.452-.158-.301-.315-.452-.787-.15-1.102l3.465-4.41c.302-.316.754-.473 1.055-.158.301.315.452.787.15 1.102l-3.465 4.411c-.15.157-.452.315-.603.315zM72.5 57c-.375-.133-.5-.4-.5-.8l.75-4.667c.125-.4.375-.533.75-.533.375.133.5.4.5.8l-.75 4.667c-.125.266-.375.533-.75.533zm-3.569-.83c.176.277 0 .692-.351.83h-.352c-.351 0-.702-.138-.878-.415l-2.284-4.703c-.176-.277 0-.692.527-.83.351-.138.878 0 1.054.415l2.284 4.703z"/>
    <path d="M23.002 36C27.462 36 31 32.308 31 28c0-4.462-3.691-8-7.998-8-4.46 0-7.997 3.692-7.997 8-.154 4.308 3.537 8 7.997 8zm0-14.5c3.559 0 6.498 2.94 6.498 6.5s-2.94 6.5-6.497 6.5c-3.558 0-6.497-2.94-6.497-6.5-.155-3.56 2.784-6.5 6.497-6.5z"/>
    <path d="M0 9v66h75.4l-.725-1.467H1.45v-7.04l18.995-19.066L31.03 58.133l1.015 1.027 1.015-1.027 29.145-29.48L85.55 52.267v17.746l1.45.44V9H0zm85.55 41.067L62.205 26.6l-30.16 30.507-11.6-11.734L1.45 64.44V10.467h84.1v39.6z"/>
</svg>
